X:18589
T:Welsh reel (1)
R:Reel
O:Wales
M:4/4
K:G
D|\
G2GA B2G2|c2cB A2c2|B2G2 GABc|d2A2 F2D2|\
G2GA B2G2|c2cB A2c2|B2G2 FGAF|G4 G3::
A|\
B2d2 d2cB|A2c2 B2A2|B2G2 GABc|d2A2 F2D2|\
G2GA B2G2|c2cB A2c2|B2G2 FGAF|G4 G3:|


